lib/healthicons/icons/outline/symbols/nutrition.svg

<svg fill="none" height="48" viewBox="0 0 48 48" width="48" xmlns="http://www.w3.org/2000/svg"><g fill="#333"><path clip-rule="evenodd" d="m5.02711 12.004c.15011 2.6911.91605 4.357 2.03775 5.3836-.54768.4079-.8652 1.0926-.74862 1.8329.57236 3.6346 2.00331 11.3226 4.93666 19.9885.583 1.7224 2.9115 1.7224 3.4945 0 2.9333-8.6659 4.3643-16.3539 4.9367-19.9885.1165-.7403-.201-1.425-.7487-1.833 1.1217-1.0265 1.8876-2.6924 2.0377-5.3835.0308-.5514-.4222-1.0056-.9744-.9977-1.6281.0234-2.9212.1223-3.93.4614-.4164-1.0984-1.2571-2.13544-2.5223-3.08214-.3232-.24186-.7694-.24186-1.0926 0-1.2549.93901-2.0923 1.96684-2.51209 3.05534-.97964-.2889-2.26247-.4035-3.93759-.4328-.5522-.0097-1.00777.4445-.97701.9959zm9.85389 1.9729-.6824-1.8003c-.189-.4984-.5583-1.0589-1.1985-1.6501-.6335.585-1.0017 1.1399-1.1924 1.6342l-.6634 1.72-1.76834-.5215c-.52165-.1538-1.23395-.2565-2.23468-.3112.29731 1.9281 1.01195 2.743 1.66343 3.1644.93152.6024 2.28879.7857 4.16549.7876h.0598c1.8768-.0019 3.234-.1852 4.1655-.7876.6521-.4218 1.3675-1.2378 1.6643-3.1699-.9698.0508-1.6506.1518-2.1538.3209zm-6.57479 5.0231h9.38789c-.2865 1.8074-.7839 4.5992-1.5698 8h-4.1243v2h3.645c-.6907 2.7823-1.5605 5.8825-2.6449 9.13-.3542-1.061-.6856-2.1064-.9953-3.13h.9952v-2h-1.5814c-.9575-3.374-1.67388-6.452-2.19754-9h2.77894v-2h-3.17254c-.22107-1.1762-.39248-2.1875-.52125-3z" fill-rule="evenodd"/><path d="m38.2425 28.0298c.5358.134.8616.6769.7276 1.2127-.5895 2.3583-2.3693 4.138-4.7276 4.7276-.5358.134-1.0787-.1918-1.2126-.7276-.134-.5358.1918-1.0787.7276-1.2127 1.6417-.4104 2.8619-1.6307 3.2724-3.2724.1339-.5358.6768-.8615 1.2126-.7276z"/><path clip-rule="evenodd" d="m32.6508 21.0274c-1.1088-2.5929-.9166-5.3474 1.0563-7.3203l-1.4142-1.4142c-2.3294 2.3293-2.7339 5.3774-1.9526 8.1779-4.5757-2.0702-9.3403 1.7369-9.3403 7.5292 0 5.5228 4.9249 10 11 10s11-4.4772 11-10c0-6.2202-5.4945-10.151-10.3492-6.9726zm-.6508 3.0338-1.2494-.9995c-1.8579-1.4864-3.6884-1.4038-5.0746-.5476-1.4656.9052-2.676 2.8434-2.676 5.4859 0 4.2431 3.8458 8 9 8s9-3.7569 9-8c0-2.6425-1.2104-4.5807-2.676-5.4859-1.3862-.8562-3.2167-.9388-5.0746.5476z" fill-rule="evenodd"/><path d="m34 18c3 0 5-2 5-5-3 0-5 2-5 5z"/></g></svg>

<svg width="48" height="48" viewBox="0 0 48 48" fill="none" xmlns="http://www.w3.org/2000/svg">
<path fill-rule="evenodd" clip-rule="evenodd" d="M5.02711 12.004C5.17722 14.6951 5.94316 16.361 7.06486 17.3876C6.51718 17.7955 6.19966 18.4802 6.31624 19.2205C6.8886 22.8551 8.31955 30.5431 11.2529 39.209C11.8359 40.9314 14.1644 40.9314 14.7474 39.209C17.6807 30.5431 19.1117 22.8551 19.6841 19.2205C19.8006 18.4802 19.4831 17.7955 18.9354 17.3875C20.0571 16.361 20.823 14.6951 20.9731 12.004C21.0039 11.4526 20.5509 10.9984 19.9987 11.0063C18.3706 11.0297 17.0775 11.1286 16.0687 11.4677C15.6523 10.3693 14.8116 9.33226 13.5464 8.38556C13.2232 8.1437 12.777 8.1437 12.4538 8.38556C11.1989 9.32457 10.3615 10.3524 9.94171 11.4409C8.96207 11.152 7.67924 11.0374 6.00412 11.0081C5.45192 10.9984 4.99635 11.4526 5.02711 12.004ZM14.881 13.9769L14.1986 12.1766C14.0096 11.6782 13.6403 11.1177 13.0001 10.5265C12.3666 11.1115 11.9984 11.6664 11.8077 12.1607L11.1443 13.8807L9.37596 13.3592C8.85431 13.2054 8.14201 13.1027 7.14128 13.048C7.43859 14.9761 8.15323 15.791 8.80471 16.2124C9.73623 16.8148 11.0935 16.9981 12.9702 17H13.03C14.9068 16.9981 16.264 16.8148 17.1955 16.2124C17.8476 15.7906 18.563 14.9746 18.8598 13.0425C17.89 13.0933 17.2092 13.1943 16.706 13.3634L14.881 13.9769ZM8.30621 19H17.6941C17.4076 20.8074 16.9102 23.5992 16.1243 27H12V29H15.645C14.9543 31.7823 14.0845 34.8825 13.0001 38.13C12.6459 37.069 12.3145 36.0236 12.0048 35H13V33H11.4186C10.4611 29.626 9.74472 26.548 9.22106 24H12L12 22H8.82746C8.60639 20.8238 8.43498 19.8125 8.30621 19Z" fill="#333333"/>
<path d="M38.2425 28.0298C38.7783 28.1638 39.1041 28.7067 38.9701 29.2425C38.3806 31.6008 36.6008 33.3805 34.2425 33.9701C33.7067 34.1041 33.1638 33.7783 33.0299 33.2425C32.8959 32.7067 33.2217 32.1638 33.7575 32.0298C35.3992 31.6194 36.6194 30.3991 37.0299 28.7574C37.1638 28.2216 37.7067 27.8959 38.2425 28.0298Z" fill="#333333"/>
<path fill-rule="evenodd" clip-rule="evenodd" d="M32.6508 21.0274C31.542 18.4345 31.7342 15.68 33.7071 13.7071L32.2929 12.2929C29.9635 14.6222 29.559 17.6703 30.3403 20.4708C25.7646 18.4006 21 22.2077 21 28C21 33.5228 25.9249 38 32 38C38.0751 38 43 33.5228 43 28C43 21.7798 37.5055 17.849 32.6508 21.0274ZM32 24.0612L30.7506 23.0617C28.8927 21.5753 27.0622 21.6579 25.676 22.5141C24.2104 23.4193 23 25.3575 23 28C23 32.2431 26.8458 36 32 36C37.1542 36 41 32.2431 41 28C41 25.3575 39.7896 23.4193 38.324 22.5141C36.9378 21.6579 35.1073 21.5753 33.2494 23.0617L32 24.0612Z" fill="#333333"/>
<path d="M34 18C37 18 39 16 39 13C36 13 34 15 34 18Z" fill="#333333"/>
</svg>
